X:188
T:Hamburgh Dance, The
M: C|
L:1/8
B:Thompson's Compleat Collection of 200 Favourite Country Dances, vol. 3 (London, 1773)
Z:Transcribed and edited by Flynn Titford-Mock, 2007
Z:abc's:AK/Fiddler's Companion
K:Eb
Eedc BAGF | GEDE FD B,2 | BEcE dEeE | D2 E2 F4::gBgB fB=AB | (c/d/e) dc dB=AB |
fBgb aBbB | fedc BAGF | Eedc BAGF | GEDE FD B,2 | BEcE dE e2 | BAGF E4 :|

